fruit-cherries-off.svg

<svg fill="currentColor" viewBox="0 0 24 24"><path d="M22.1 21.5 2.4 1.7 1.1 3l7.6 7.6c-.4 1-.8 1.9-1.1 2.4-2 .2-3.6 1.9-3.6 4 0 2.2 1.8 4 4 4 1.1 0 2-.4 2.7-1.1-.4-.9-.7-1.9-.7-2.9s.3-2 .7-2.9c-.4-.4-1-.7-1.5-.9.2-.4.4-.9.7-1.5l2.9 2.9c-.5.7-.8 1.5-.8 2.4 0 2.2 1.8 4 4 4 .9 0 1.7-.3 2.3-.8l2.5 2.5zM8 15.5c-.8 0-1.5.7-1.5 1.5h-1c0-1.4 1.1-2.5 2.5-2.5zm6.5 1.5h-1c0-.5.1-.9.3-1.3l.8.8c-.1.2-.1.3-.1.5m5.5-.2L16.2 13c2 .1 3.7 1.8 3.8 3.8m-8.7-8.7-1.2-1.2c.6-1.8 1.1-3.6 1.1-4.9l1.4-.1c.1.4.1.9.2 1.5.6-.1 2.7-.1 5 1.7 2.7 2 2 5.8 2 5.8s-2.4.4-5.1-1.7l-.9-.9c.3 1.2.7 2.4 1.1 3.4l-2.3-2.3c-.3-1-.5-2-.7-3-.2.6-.4 1.2-.6 1.7"/></svg>

<svg  viewBox="0 0 24 24" fill="currentColor"><path  d="M22.1 21.5L2.4 1.7L1.1 3L8.7 10.6C8.3 11.6 7.9 12.5 7.6 13C5.6 13.2 4 14.9 4 17C4 19.2 5.8 21 8 21C9.1 21 10 20.6 10.7 19.9C10.3 19 10 18 10 17S10.3 15 10.7 14.1C10.3 13.7 9.7 13.4 9.2 13.2C9.4 12.8 9.6 12.3 9.9 11.7L12.8 14.6C12.3 15.3 12 16.1 12 17C12 19.2 13.8 21 16 21C16.9 21 17.7 20.7 18.3 20.2L20.8 22.7L22.1 21.5M8 15.5C7.2 15.5 6.5 16.2 6.5 17H5.5C5.5 15.6 6.6 14.5 8 14.5V15.5M14.5 17H13.5C13.5 16.5 13.6 16.1 13.8 15.7L14.6 16.5C14.5 16.7 14.5 16.8 14.5 17M20 16.8L16.2 13C18.2 13.1 19.9 14.8 20 16.8M11.3 8.1L10.1 6.9C10.7 5.1 11.2 3.3 11.2 2L12.6 1.9C12.7 2.3 12.7 2.8 12.8 3.4C13.4 3.3 15.5 3.3 17.8 5.1C20.5 7.1 19.8 10.9 19.8 10.9S17.4 11.3 14.7 9.2L13.8 8.3C14.1 9.5 14.5 10.7 14.9 11.7L12.6 9.4C12.3 8.4 12.1 7.4 11.9 6.4C11.7 7 11.5 7.6 11.3 8.1Z"/></svg>
